X: 11586
T: Eel At The Forge, The
R: reel
M: 4/4
K: Eminor
B/c/d|:~e3d BAGF|~E3F GAB/c/d|e2ed BAGF|GBAG FEFB|
~e3d BAGF|~E3F GAB/c/d|e2gf edBA|FEFD E4:|
|:~e3b gBeB|gBeg fed2|~e3b gBeB|dBAG FAB/c/d|
~e3g ~f3a|gefd edB/c/d|bgab gfed|egga gedB:|

